svgs/sharp-light/text-size.svg

<svg xmlns="http://www.w3.org/2000/svg" viewBox="0 0 640 512"><!--! Font Awesome Pro 6.6.0 by @fontawesome - https://fontawesome.com License - https://fontawesome.com/license (Commercial License) Copyright 2024 Fonticons, Inc. --><path d="M16 32L0 32 0 48l0 80 0 16 32 0 0-16 0-64 144 0 0 384-64 0-16 0 0 32 16 0 160 0 16 0 0-32-16 0-64 0 0-384 144 0 0 64 0 16 32 0 0-16 0-80 0-16-16 0L16 32zM336 224l-16 0 0 16 0 48 0 16 32 0 0-16 0-32 112 0 0 192-48 0-16 0 0 32 16 0 128 0 16 0 0-32-16 0-48 0 0-192 112 0 0 32 0 16 32 0 0-16 0-48 0-16-16 0-144 0-144 0z"/></svg>

<svg xmlns="http://www.w3.org/2000/svg" viewBox="0 0 640 512"><!--! Font Awesome Pro 6.4.0 by @fontawesome - https://fontawesome.com License - https://fontawesome.com/license (Commercial License) Copyright 2023 Fonticons, Inc. --><path d="M16 32H0V48v80 16H32V128 64H176l0 384H112 96v32h16H272h16V448H272 208l0-384H352v64 16h32V128 48 32H368 16zM336 224H320v16 48 16h32V288 256H464l0 192H416 400v32h16H544h16V448H544 496l0-192H608v32 16h32V288 240 224H624 480 336z"/></svg>
